!!!COM: Felix Mendelssohn
!!!CNT: Deutsch
!!!TXO: Deutsch
!!!OTL: Tro2stung
!!!LYR: Hoffmann von Fallersleben
!!!OPS: Op. 71
!!!ONM: No. 1
!!!ENC: Daniel Alt & Leigh VanHandel
!!!YOR: Sa2mmtliche Lieder fu2r eine Singstimme 
!!!YOR: Neu revidirt von Dr. L. Benda, Ausgabe fu2r mittlere Stimme
!!!YOR: Braunschweig. Henry Litolff's Verlag. Boston and New York: Arthur P. Schmidt.
!!!ODT: 1845/
**kern	**silbe
*staff1	*
=1-	=1
*clefG2	*
*k[]	*
*M2/4	*
2r	.
=2	=2
2r	.
=3	=3
4r	.
{8.cc	{Wer-
16cc	-de
=4	=4
8cc	hei-
8a	-ter,
8.f	mein
16g	Ge-
=5	=5
8f	-mu2-
8e	-the,
8g	und
8f	ver-
=6	=6
8e	-giss
8d	der
8.a	Angst
16d	und
=7	=7
4d}	Pein!}
{8.f	{Gross
16f	ist
=8	=8
8.e	Got-
16e	-tes
8.a	Gnad’
16a	und
=9	=9
8a	Gu2-
8a-	-te,
8b	gross
8e	muss
=10	=10
8.a	auch
16a	dein
8.ee	Hof-
16ee	-fen
=11	=11
4ee	sein,
4ee-}	|}
=12	=12
8r	.
{4ee	{gross
8dd	muss
=13	=13
4g	auch
8b	cein
8a	|
=14	=14
4d	Hof-
8f	|
8e	-fen
=15	=15
4c}	sein.}
4r	.
=16	=16
2r	.
=17	=17
4r	.
{8.cc	{Durch
16cc	die
=18	=18
8cc	Fin-
8a	-ster-
8.f	-niss
16g	der
=19	=19
8f	Kla-
8e	-gen
8g	bricht
8f	der
=20	=20
8e	Freu-
8e-	-de
8.a	Mor-
16d	-gen-
=21	=21
2e-}	-stern;}
=22	=22
4r	.
{8.e-	{bald
16e-	wird
=23	=23
8.e	auch
16e	dein
8.a	Mor-
16a	-gen
=24	=24
8a	ta-
8a-	-gen,
8b	Got-
8e	-tes
=25	=25
8.a	Gu2t’
16a	ist
8.ee	min-
16ee	-mer
=26	=26
4ee	fern!
4ee-}	|}
=27	=27
8r	.
{4ee	{Got-
8dd	-tes
=28	=28
4g	Gu2t’
8b	ist
8a	|
=29	=29
4d	nim-
8f	|
8e	-mer
=30	=30
2c	fern!
=31	=31
[2cc	|
=32	=32
4cc]}	|}
{8b	{Got-
8a	-tes
=33	=33
8a	Gu2t’
8d	ist
8f	nim-
8e	-mer
=34	=34
4c}	fern!}
4r	.
==	==
*-	*-
